X:1
T:Hétre ma várom a Nemzetinél
C:Lajtai Lajos
Z:Public Domain
L:1/8
M:2/4
K:Eb
V:1 treble 
%%MIDI program 52
V:1
 z"Cm" C DE | DC G,E |"G" D4 | z4 | z D EF | ED G,F |"Cm" E4 | z4 | z G AB | AG EG |"Fm" F4 | z4 | %12
w: Min- dig a|Nem- ze- ti e-|lőtt||Vá- rom az|é- des ki- csi|nőt.||S~a hir- de-|té- si osz- lo-|pot||
w: S~a nő hal-|kan o- da- o-|son,||Gya- log jön,|vagy vil- la- mo-|son,||A lo- vag-|já- hoz o- da-|lép,||
 z F GA | GF EF |"G" G2 F2 | E2 D2 :|S"Cm" C2 =B,C | E2 DC |"G" D2 ^CD | G4 |"Fm" FF ED | %21
w: E- gé- szen|ki- ol- va- som,|míg ott|vá- rok.|Hét- re ma|vá- rom a|Nem- ze- ti-|nél,|ott, a- hol a|
w: Egy ran- de-|vú de cso- da-|szép! *|||||||
"G" F E2 D |"Cm" C4 | z4!fine! |"Cm" C2 =B,C | E2 DC |"G" D2 ^CD | G4 |"Fm" AA GF | AG- GF | %30
w: ha- tos meg-|áll.||Es- te az|Em- ke ci-|gá- nya ze-|nél,|ha nem jön el|szí- vem, * de|
w: |||||||||
"G" G4 | z G ^FG |"Fm" cc A2 | z F =EF |"G" BB G2 | z E DE |"Fm" AA E2 | AA E2 |"G" FF D2 | %39
w: fáj!|De ott lesz|u- gye- bár?|Le- sem, hogy|jön- e már,|Mi- ránk egy|i- ci- ke-|pi- ci- ke|mo- zi vár!|
w: |||||||||
 z F ED!D.S.! |] %40
w: |
w: |

